X: 19362
T: Jack The Lighthouse's
R: reel
M: 4/4
K: Dmajor
|AddB cABG|AddB cdeg|AddB cABG|AFEG FD D2:|
effe dedB|~A3 F ABde|~f3 e dedB|AFEG FDDd|
effe dDBD|ADFD ABde|fdec dBAD|AFEG FD D2|

